public/solo-ia-logo.svg

<svg width="990" height="998" viewBox="0 0 990 998" fill="none" xmlns="http://www.w3.org/2000/svg"><rect width="990" height="998" rx="105" fill="#fff"/><path d="M285.23 447.369c85.18 9.289 161.832-51.581 171.209-135.957s-52.072-160.305-137.251-169.594c-85.18-9.288-161.832 51.582-171.209 135.957-9.377 84.376 52.072 160.306 137.251 169.594m438.35 183.495c60.843 6.634 115.595-36.844 122.292-97.113s-37.194-114.504-98.036-121.139c-60.843-6.634-115.595 36.845-122.293 97.113-6.697 60.269 37.195 114.504 98.037 121.139M242.294 862.389c48.674 5.308 92.476-29.475 97.834-77.689 5.359-48.215-29.756-91.604-78.43-96.911s-92.475 29.475-97.834 77.69c-5.358 48.214 29.756 91.603 78.43 96.91" fill="#000"/><path d="m322.915 366.276-56.657-6.178-44.352 399.087 56.657 6.178z" fill="#000"/><path d="m690.904 579.262-27.407-49.505-398.753 216.616 27.408 49.505z" fill="#000"/></svg>

<svg width="990" height="998" viewBox="0 0 990 998" fill="none" xmlns="http://www.w3.org/2000/svg">
<rect width="990" height="998" rx="105" fill="white"/>
<path d="M285.23 447.369C370.41 456.658 447.062 395.788 456.439 311.412C465.816 227.037 404.367 151.107 319.188 141.818C234.008 132.53 157.356 193.4 147.979 277.775C138.602 362.151 200.051 438.081 285.23 447.369Z" fill="black"/>
<path d="M723.58 630.864C784.423 637.498 839.175 594.02 845.872 533.751C852.57 473.483 808.678 419.247 747.836 412.612C686.993 405.978 632.241 449.457 625.543 509.725C618.846 569.994 662.738 624.229 723.58 630.864Z" fill="black"/>
<path d="M242.294 862.389C290.968 867.697 334.77 832.914 340.128 784.7C345.487 736.485 310.372 693.096 261.698 687.789C213.024 682.481 169.223 717.264 163.864 765.479C158.506 813.693 193.62 857.082 242.294 862.389Z" fill="black"/>
<path d="M322.915 366.276L266.258 360.098L221.906 759.185L278.563 765.363L322.915 366.276Z" fill="black"/>
<path d="M690.904 579.262L663.497 529.757L264.744 746.373L292.152 795.878L690.904 579.262Z" fill="black"/>
</svg>
